X:1
T:Sweet Story of Jesus
T:John Robson Sweeney
T:Sweet Story of Jesus
T:Public Domain
T:Public Domain
C:John Robson Sweeney
Z:Public Domain
%%score ( 1 2 ) 3
L:1/8
M:6/8
K:F
V:1 treble 
V:2 treble 
V:3 bass 
V:1
 [Fc] | [Fc]>[Fc][Fd] [Fc][FA]F | [EG][DF][EG] [FA]2 [FA] | [FB][Fc][Fd] [Fd][Fc][FA] | %4
w: 1.~Oh,|beau- ti- ful sto- ry of|sus our Lord, That bright-|ens and hal- lows each page|
w: 2.~How|full of com- pass- ion was|sus our Lord, The sick|and af- flict- ed to health|
w: 3.~But|when in that sto- ry we|how He prayed A- lone|in the gar- den, be- neath|
w: 4.~But|now He has tri- umphed o’er|and the grave, He lives|our Re- deem- er, and might-|
 [DF][DE][DF] [EG]2 [Ec] | [Fc]>[Fc][Fd] [Fc][FA]F | [EG][DF][EG] [FA]2 [FA] | %7
w: of His Word, It tells|us how hum- ble and low-|His birth, How ma- ny|
w: He re- stored, The poor|He re- mem- bered, the hun-|He fed, And gave to|
w: its dark shade, How, scorned|and in- sult- ed, He died|our sake, Our hearts at|
w: y to save; To Him|who ex- alt- ed for- ev-|shall live, All hon- or,|
 [FB][Fc][Fd] [Fd][Fc][FA] | [EG][FA]>[CG] [CF]2 ||"^Refrain" [_EF] | [DF]>[DB][DB] [FB][Fc][Fd] | %11
w: His tri- als and sor- rows|on earth. * *|||
w: the weep- ing their friends from|the dead. Sweet stor-|y|of Je- sus, the ten- der|
w: his an- guish are rea- dy|to break. * *|||
w: do- min- ion, and glor- y|we give. * *|||
 [Fd][Fc][Fc] [Fc]2 [FA] | [FG]>[FG][FG] [F=B][Fd][Fe] | [Ed][Ec][Ec] [Ec]2 |] %14
w: |||
w: and meek, Who came in|His mer- cy lost sin- ners|to seek, * *|
w: |||
w: |||
V:2
 x | x5 F | x6 | x6 | x6 | x5 F | x6 | x6 | x5 || x | x6 | x6 | x6 | x5 |] %14
w: |Je-||||ly|||||||||
w: |Je-||||gry|||||||||
w: |read||||for|||||||||
w: |death||||er|||||||||
V:3
 [F,A,] | [F,A,]>[F,A,][F,B,] [F,A,][F,C][A,,C] | [C,C][C,C][C,C] [F,C]2 [_E,C] | %3
w: ~|~ ~ ~ ~ ~ ~|~ ~ ~ ~ ~|
 [D,B,][C,A,][B,,B,] [F,B,][F,A,][F,C] | [G,=B,][G,B,][G,B,] [C,C]2 [C,_B,] | %5
w: ~ ~ ~ ~ ~ ~|~ ~ ~ ~ Sweet|
 [F,A,]>[F,A,][F,B,] [F,A,][F,C][A,,C] | [C,C][C,C][C,C] [F,C]2 [_E,C] | %7
w: stor- y of Je- sus! though|oft it is told, We|
 [D,B,][C,A,][B,,B,] [F,B,][F,A,][F,C] | [C,C][C,C]>[C,B,] [F,A,]2 || [F,A,] | %10
w: love it, we love it— it|ne- ver grows old.||
 [B,,B,]>[B,,F,][B,,F,] [D,B,][C,A,][B,,B,] | [F,B,][F,A,][F,A,] [F,A,]2 [F,C] | %12
w: ||
 [G,=B,]>[G,B,][G,B,] [G,D][G,B,][G,B,] | [C,C][C,G,][C,G,] [C,G,]2 |] %14
w: ||

